src/assets/icons/months,simple,august-8.svg

<svg width="48" height="48" viewBox="0 0 48 48" fill="none" xmlns="http://www.w3.org/2000/svg">
<rect opacity="0.2" x="5" y="5" width="38" height="38" rx="4" fill="black"/>
<path d="M5 13C5 9.22876 5 7.34315 6.17157 6.17157C7.34315 5 9.22876 5 13 5H35C38.7712 5 40.6569 5 41.8284 6.17157C43 7.34315 43 9.22876 43 13V15H5V13Z" fill="black"/>
<path d="M9.1108 35L9.97443 32.3466H14.1733L15.0369 35H17.6733L13.6619 23.3636H10.4915L6.47443 35H9.1108ZM10.5994 30.4261L12.0312 26.0227H12.1222L13.554 30.4261H10.5994ZM26.2614 23.3636V30.7102C26.2614 32.0398 25.3295 33 23.8977 33C22.4716 33 21.5341 32.0398 21.5341 30.7102V23.3636H19.0739V30.9205C19.0739 33.4659 20.9943 35.1648 23.8977 35.1648C26.7898 35.1648 28.7216 33.4659 28.7216 30.9205V23.3636H26.2614ZM38.4616 27.125H40.9616C40.6435 24.8239 38.6151 23.2045 35.9844 23.2045C32.9105 23.2045 30.5412 25.4205 30.5412 29.1932C30.5412 32.875 32.7571 35.1591 36.0355 35.1591C38.973 35.1591 41.0696 33.3011 41.0696 30.2386V28.7727H36.2003V30.625H38.7003C38.6662 32.0682 37.6832 32.983 36.0469 32.983C34.2003 32.983 33.0355 31.6023 33.0355 29.1705C33.0355 26.75 34.2457 25.3807 36.0241 25.3807C37.2912 25.3807 38.1491 26.0341 38.4616 27.125Z" fill="black"/>
</svg>

<svg xmlns="http://www.w3.org/2000/svg" width="48" height="48" fill="none" viewBox="0 0 48 48">
  <rect width="38" height="38" x="5" y="5" fill="#000" opacity=".2" rx="4"/>
  <path fill="#000" d="M5 13c0-3.771 0-5.657 1.172-6.828C7.343 5 9.229 5 13 5h22c3.771 0 5.657 0 6.828 1.172C43 7.343 43 9.229 43 13v2H5v-2zM9.11 35l.864-2.653h4.2L15.036 35h2.636l-4.011-11.636h-3.17L6.474 35h2.637zm1.49-4.574l1.431-4.403h.091l1.432 4.403h-2.955zm15.661-7.062v7.346c0 1.33-.931 2.29-2.363 2.29-1.426 0-2.364-.96-2.364-2.29v-7.346h-2.46v7.556c0 2.546 1.92 4.245 4.824 4.245 2.892 0 4.824-1.7 4.824-4.244v-7.557h-2.46zm12.2 3.761h2.5c-.317-2.301-2.346-3.92-4.977-3.92-3.074 0-5.443 2.216-5.443 5.988 0 3.682 2.216 5.966 5.494 5.966 2.938 0 5.035-1.858 5.035-4.92v-1.466H36.2v1.852h2.5c-.034 1.443-1.017 2.358-2.653 2.358-1.847 0-3.011-1.38-3.011-3.812 0-2.421 1.21-3.79 2.988-3.79 1.267 0 2.125.653 2.438 1.744z"/>
</svg>
